svg/u1f3ba.svg

<svg viewBox="0 0 128 128" xmlns="http://www.w3.org/2000/svg">
  <defs/>
  <path d="M56.652,65.682 L111.485,14.079 L116.316,19.213 L61.483,70.816 L56.652,65.682 Z" fill="#FFCA28"/>
  <path d="M20.81,99.276 L90.42,33.766 Q95.022,29.434 101.508,29.863 Q107.797,30.278 112.249,34.962 Q115.046,37.668 116.442,41.597 Q119.482,50.155 112.248,56.955 L79.1,88.153 Q74.843,92.162 68.676,91.546 Q63.415,91.021 59.134,87.43 Q54.696,83.708 53.757,78.127 L25.73,104.504 Z M64.237,68.264 L64.238,68.265 Q60.362,71.908 60.73,76.104 Q61.043,79.663 63.746,81.93 Q66.331,84.098 69.389,84.404 Q72.303,84.695 74.18,82.927 L107.332,51.725 Q111.148,48.138 109.678,44 Q108.836,41.63 107.219,40.084 L107.151,40.019 L107.087,39.95 Q104.552,37.257 101.034,37.025 Q97.667,36.802 95.34,38.994 L64.237,68.264 Z" fill="#FFCA28"/>
  <path d="M58.72,63.62 C35.7,80.95 12.4,71.97 10.84,71.46 C6.76,70.12 5.82,71.6 5.3,72.14 C1.4,76.1 6.5,88.65 18.31,102.13 C30.12,115.61 44.01,124.78 48.06,120.97 C50.88,118.31 50.08,115.8 49.82,111.55 C49.47,105.92 44.97,86.31 63.6,68.79 L58.72,63.62 Z" fill="#FFCA28"/>
  <path d="M29.287,95.426 C39.035,106.416 45.399,116.689 43.503,118.371 C41.606,120.053 32.167,112.507 22.42,101.517 C12.672,90.527 6.308,80.254 8.204,78.572 C10.101,76.89 19.54,84.436 29.287,95.426 Z" fill="#DD7341"/>
  <path d="M53.47,69.23 C45.07,75 32.99,78.06 22.6,77.08 C21.65,76.99 20.57,76.92 19.86,77.56 C18.84,78.48 25.8,85.48 30.4,84.6 C41.19,82.55 49.64,75.43 54.02,71.67 C54.5,71.26 55.59,70.15 56.8,68.89 C57.47,68.19 56.57,67.11 55.76,67.66 C55.04,68.16 54.27,68.69 53.47,69.23 Z" fill="#FFF9C4"/>
  <path d="M94.16,82.97 C93.56,83.95 92.5,85.19 90.69,86.14 C89.82,86.6 88.74,86.42 88.07,85.71 L57.49,53.21 L63.26,47.78 L93.89,80.33 C94.56,81.05 94.67,82.13 94.16,82.97 Z" fill="#FFCA28"/>
  <path d="M59.378,44.322 C60.078,45.066 59.498,46.749 58.083,48.081 C56.667,49.413 54.952,49.89 54.252,49.146 C53.551,48.402 54.131,46.719 55.547,45.387 C56.963,44.055 58.678,43.578 59.378,44.322 Z" fill="#9E740B"/>
  <path d="M60.2,48.39 L58.86,46.96 L56.94,48.77 L58.28,50.2 C57.31,51.41 56.89,52.57 57.35,53.06 C57.93,53.68 59.69,52.96 61.29,51.46 C62.88,49.96 63.7,48.24 63.12,47.63 C62.65,47.15 61.46,47.5 60.2,48.39 Z" fill="#9E740B"/>
  <path d="M103.5,74.41 C102.9,75.39 101.84,76.63 100.03,77.58 C99.16,78.04 98.08,77.86 97.41,77.15 L66.83,44.65 L72.6,39.22 L103.23,71.77 C103.9,72.49 104.01,73.57 103.5,74.41 Z" fill="#FFCA28"/>
  <path d="M68.718,35.762 C69.419,36.506 68.839,38.189 67.423,39.521 C66.007,40.854 64.292,41.331 63.592,40.587 C62.892,39.842 63.472,38.159 64.887,36.827 C66.303,35.495 68.018,35.018 68.718,35.762 Z" fill="#9E740B"/>
  <path d="M69.54,39.83 L68.2,38.4 L66.28,40.21 L67.62,41.64 C66.65,42.85 66.23,44.01 66.69,44.5 C67.27,45.12 69.03,44.4 70.63,42.9 C72.22,41.4 73.04,39.68 72.46,39.07 C71.99,38.59 70.8,38.94 69.54,39.83 Z" fill="#9E740B"/>
  <path d="M112.42,65.66 C111.82,66.64 110.76,67.88 108.95,68.83 C108.08,69.29 107,69.11 106.33,68.4 L75.74,35.9 L81.51,30.47 L112.14,63.02 C112.82,63.74 112.93,64.82 112.42,65.66 Z" fill="#FFCA28"/>
  <path d="M81.362,30.332 C81.945,30.951 81.126,32.668 79.534,34.167 C77.941,35.666 76.178,36.379 75.595,35.759 C75.012,35.14 75.83,33.423 77.423,31.924 C79.016,30.425 80.779,29.713 81.362,30.332 Z" fill="#9E740B"/>
  <path d="M77.638,27.012 C78.339,27.756 77.759,29.439 76.343,30.771 C74.927,32.103 73.212,32.58 72.512,31.836 C71.812,31.092 72.392,29.409 73.807,28.077 C75.223,26.745 76.938,26.268 77.638,27.012 Z" fill="#9E740B"/>
  <path d="M75.19,31.469 L77.112,29.66 L79.442,32.135 L77.52,33.945 L75.19,31.469 Z" fill="#9E740B"/>
  <path d="M120.31,9.7 C116.23,5.73 113.26,5.51 111.73,7.08 C111.06,7.77 110.93,8.86 111.24,10.12 C111.46,11 111.44,11.97 110.81,12.62 L109.19,14.29 C107.79,15.73 108.4,17.08 108.4,17.08 C108.4,17.08 109.77,17.61 111.33,18.93 C112.69,20.45 113.36,21.96 113.36,21.96 C113.36,21.96 114.73,22.53 116.13,21.09 L117.75,19.42 C118.38,18.77 119.24,18.85 120.12,19.04 C121.39,19.32 122.48,19.15 123.15,18.46 C124.68,16.9 124.39,13.67 120.31,9.7 Z" fill="#616161"/>
</svg>

<svg viewBox="0 0 128 128" xmlns="http://www.w3.org/2000/svg">
  <g>
    <rect height="7.05" fill="#FFCA28" transform="matrix(0.7282 -0.6853 0.6853 0.7282 -5.5855 70.8106)" width="75.3" x="48.84" y="38.92"/>
    <path d="M23.27,101.89l69.61-65.51 c4.62-4.35,12.15-3.85,16.82,1.11c0,0,8.93,8.54,0.09,16.85L76.64,85.54c-4.3,4.05-10.92,2.73-15.2-0.86 c-4.4-3.69-7.14-12,0.34-19.03" fill="none" stroke="#FFCA28" stroke-width="7.1779" stroke-miterlimit="10"/>
    <path d="M58.72,63.62C35.7,80.95,12.4,71.97,10.84,71.46c-4.08-1.34-5.02,0.14-5.54,0.68 c-3.9,3.96,1.2,16.51,13.01,29.99s25.7,22.65,29.75,18.84c2.82-2.66,2.02-5.17,1.76-9.42c-0.35-5.63-4.85-25.24,13.78-42.76 L58.72,63.62z" fill="#FFCA28"/>
    <ellipse cx="25.86" cy="98.47" rx="4.59" ry="26.6" fill="#DD7341" transform="matrix(0.7481 -0.6635 0.6635 0.7481 -58.8272 41.9642)"/>
    <path d="M53.47,69.23c-8.4,5.77-20.48,8.83-30.87,7.85c-0.95-0.09-2.03-0.16-2.74,0.48 c-1.02,0.92,5.94,7.92,10.54,7.04c10.79-2.05,19.24-9.17,23.62-12.93c0.48-0.41,1.57-1.52,2.78-2.78c0.67-0.7-0.23-1.78-1.04-1.23 C55.04,68.16,54.27,68.69,53.47,69.23z" fill="#FFF9C4"/>
    <path d="M94.16,82.97c-0.6,0.98-1.66,2.22-3.47,3.17c-0.87,0.46-1.95,0.28-2.62-0.43l-30.58-32.5l5.77-5.43 l30.63,32.55C94.56,81.05,94.67,82.13,94.16,82.97z" fill="#FFCA28"/>
    <ellipse cx="56.82" cy="46.73" rx="3.52" ry="1.85" fill="#9E740B" transform="matrix(0.7282 -0.6853 0.6853 0.7282 -16.5855 51.644)"/>
    <path d="M60.2,48.39l-1.34-1.43l-1.92,1.81l1.34,1.43c-0.97,1.21-1.39,2.37-0.93,2.86 c0.58,0.62,2.34-0.1,3.94-1.6c1.59-1.5,2.41-3.22,1.83-3.83C62.65,47.15,61.46,47.5,60.2,48.39z" fill="#9E740B"/>
    <path d="M103.5,74.41c-0.6,0.98-1.66,2.22-3.47,3.17c-0.87,0.46-1.95,0.28-2.62-0.43l-30.58-32.5l5.77-5.43 l30.63,32.55C103.9,72.49,104.01,73.57,103.5,74.41z" fill="#FFCA28"/>
    <ellipse cx="66.16" cy="38.17" rx="3.52" ry="1.85" fill="#9E740B" transform="matrix(0.7282 -0.6853 0.6853 0.7282 -8.1804 55.7183)"/>
    <path d="M69.54,39.83l-1.34-1.43l-1.92,1.81l1.34,1.43c-0.97,1.21-1.39,2.37-0.93,2.86 c0.58,0.62,2.34-0.1,3.94-1.6c1.59-1.5,2.41-3.22,1.83-3.83C71.99,38.59,70.8,38.94,69.54,39.83z" fill="#9E740B"/>
    <path d="M112.42,65.66c-0.6,0.98-1.66,2.22-3.47,3.17c-0.87,0.46-1.95,0.28-2.62-0.43L75.74,35.9l5.77-5.43 l30.63,32.55C112.82,63.74,112.93,64.82,112.42,65.66z" fill="#FFCA28"/>
    <ellipse cx="78.48" cy="33.04" rx="3.96" ry="1.54" fill="#9E740B" transform="matrix(0.7282 -0.6853 0.6853 0.7282 -1.3131 62.7683)"/>
    <ellipse cx="75.08" cy="29.42" rx="3.52" ry="1.85" fill="#9E740B" transform="matrix(0.7282 -0.6853 0.6853 0.7282 0.2404 59.4527)"/>
    <rect height="3.4" fill="#9E740B" transform="matrix(0.7282 -0.6853 0.6853 0.7282 -0.781 61.6327)" width="2.64" x="76" y="30.1"/>
    <path d="M120.31,9.7c-4.08-3.97-7.05-4.19-8.58-2.62c-0.67,0.69-0.8,1.78-0.49,3.04 c0.22,0.88,0.2,1.85-0.43,2.5l-1.62,1.67c-1.4,1.44-0.79,2.79-0.79,2.79s1.37,0.53,2.93,1.85c1.36,1.52,2.03,3.03,2.03,3.03 s1.37,0.57,2.77-0.87l1.62-1.67c0.63-0.65,1.49-0.57,2.37-0.38c1.27,0.28,2.36,0.11,3.03-0.58C124.68,16.9,124.39,13.67,120.31,9.7 z" fill="#616161"/>
  </g>
</svg>
